frontend/src/assets/svgs/checkboxes/pm.svg

<svg viewBox="0 0 30 30" fill="none" xmlns="http://www.w3.org/2000/svg">
<path fill-rule="evenodd" clip-rule="evenodd" d="M22.5 10.4458C23.4692 10.7358 24.1667 10.8333 24.1667 10.8333V8.33333H25.8333C26.9384 8.33333 27.9982 7.89435 28.7796 7.11294C29.561 6.33154 30 5.27174 30 4.16667C30 3.0616 29.561 2.00179 28.7796 1.22039C27.9982 0.438987 26.9384 0 25.8333 0H21.03C19.8728 0 18.7629 0.459707 17.9447 1.27799C17.1264 2.09627 16.6667 3.20611 16.6667 4.36333C16.6667 8.12833 20.29 9.785 22.5 10.4458ZM28.3333 4.16667C28.3333 4.82971 28.0699 5.46559 27.6011 5.93443C27.1323 6.40327 26.4964 6.66667 25.8333 6.66667H22.5V8.69583C22.0428 8.54059 21.5965 8.35489 21.1642 8.14C19.5117 7.31167 18.3333 6.13333 18.3333 4.36333C18.3333 3.64813 18.6174 2.96223 19.1232 2.4565C19.6289 1.95078 20.3148 1.66667 21.03 1.66667H25.8333C26.4964 1.66667 27.1323 1.93006 27.6011 2.3989C28.0699 2.86774 28.3333 3.50363 28.3333 4.16667ZM7.3475 9.99417C6.25543 9.95635 5.22196 9.49088 4.46993 8.69811C3.71789 7.90534 3.30753 6.84878 3.32731 5.75623C3.3471 4.66369 3.79546 3.62268 4.57571 2.85767C5.35597 2.09265 6.40561 1.66491 7.49833 1.66667H10.1392C11.2073 1.66667 12.2317 2.09099 12.987 2.84629C13.7423 3.6016 14.1667 4.62601 14.1667 5.69417C14.1667 9.0625 11.1417 10.6025 9.16667 11.25C8.21 11.5633 7.5 11.6667 7.5 11.6667V10L7.3475 9.99417ZM9.16667 8.3925L7.40833 8.32917C6.74757 8.31481 6.11942 8.03921 5.66142 7.56271C5.20342 7.08622 4.95289 6.44765 4.96468 5.78684C4.97647 5.12603 5.24963 4.49681 5.72435 4.03696C6.19906 3.57711 6.83665 3.3241 7.4975 3.33333H10.1383C10.4484 3.33322 10.7555 3.39421 11.042 3.5128C11.3286 3.6314 11.5889 3.80528 11.8082 4.02451C12.0275 4.24374 12.2015 4.50404 12.3202 4.79052C12.4389 5.07701 12.5 5.38407 12.5 5.69417C12.5 7.29 11.4858 8.33583 10.0633 9.0775C9.76333 9.23417 9.45917 9.3675 9.16667 9.48083V8.3925ZM18.3333 15C18.3333 16.8417 16.8417 18.3333 15 18.3333C13.1583 18.3333 11.6667 16.8417 11.6667 15C11.6667 13.1583 13.1583 11.6667 15 11.6667C16.8417 11.6667 18.3333 13.1583 18.3333 15ZM16.6667 15C16.6667 15.442 16.4911 15.8659 16.1785 16.1785C15.8659 16.4911 15.442 16.6667 15 16.6667C14.558 16.6667 14.134 16.4911 13.8215 16.1785C13.5089 15.8659 13.3333 15.442 13.3333 15C13.3333 14.558 13.5089 14.134 13.8215 13.8215C14.134 13.5089 14.558 13.3333 15 13.3333C15.442 13.3333 15.8659 13.5089 16.1785 13.8215C16.4911 14.134 16.6667 14.558 16.6667 15ZM10.8333 16.6667C10.8333 18.5083 9.34167 20 7.5 20C5.65833 20 4.16667 18.5083 4.16667 16.6667C4.16667 14.825 5.65833 13.3333 7.5 13.3333C9.34167 13.3333 10.8333 14.825 10.8333 16.6667ZM9.16667 16.6667C9.16667 17.1087 8.99107 17.5326 8.67851 17.8452C8.36595 18.1577 7.94203 18.3333 7.5 18.3333C7.05797 18.3333 6.63405 18.1577 6.32149 17.8452C6.00893 17.5326 5.83333 17.1087 5.83333 16.6667C5.83333 16.2246 6.00893 15.8007 6.32149 15.4882C6.63405 15.1756 7.05797 15 7.5 15C7.94203 15 8.36595 15.1756 8.67851 15.4882C8.99107 15.8007 9.16667 16.2246 9.16667 16.6667ZM0 25.4542C0 22.9358 4.99667 21.6667 7.5 21.6667C7.9875 21.6667 8.57 21.715 9.19167 21.8108C10.3083 20.9917 12.3558 20 15 20C17.6433 20 19.6908 20.9917 20.8092 21.8108C21.3684 21.7207 21.9336 21.6725 22.5 21.6667C25.0033 21.6667 30 22.9358 30 25.4542V30H0V25.4542ZM13.0433 25.0192C13.3333 25.2892 13.3333 25.43 13.3333 25.4542V28.3333H1.66667V25.4542C1.66667 25.4292 1.66667 25.2892 1.95667 25.0192C2.25917 24.7367 2.75833 24.4358 3.43667 24.1608C4.79667 23.6108 6.45833 23.3333 7.5 23.3333C8.54167 23.3333 10.2033 23.6108 11.5633 24.1608C12.2417 24.4358 12.7408 24.7367 13.0433 25.0192ZM18.4517 22.38C17.3623 21.9076 16.1873 21.6648 15 21.6667C13.62 21.6667 12.4467 21.9883 11.5492 22.38C13.395 23 15 24.0267 15 25.455C15 24.0267 16.605 23.0008 18.4517 22.38ZM28.3333 25.455C28.3333 25.43 28.3333 25.2892 28.0433 25.0192C27.7408 24.7367 27.2417 24.4358 26.5633 24.1608C25.2033 23.6108 23.5417 23.3333 22.5 23.3333C21.4583 23.3333 19.7967 23.6108 18.4367 24.1608C17.7583 24.4358 17.2592 24.7367 16.9567 25.0192C16.6667 25.2892 16.6667 25.43 16.6667 25.4542V28.3333H28.3333V25.4542V25.455ZM22.5 20C24.3417 20 25.8333 18.5083 25.8333 16.6667C25.8333 14.825 24.3417 13.3333 22.5 13.3333C20.6583 13.3333 19.1667 14.825 19.1667 16.6667C19.1667 18.5083 20.6583 20 22.5 20ZM22.5 18.3333C22.942 18.3333 23.366 18.1577 23.6785 17.8452C23.9911 17.5326 24.1667 17.1087 24.1667 16.6667C24.1667 16.2246 23.9911 15.8007 23.6785 15.4882C23.366 15.1756 22.942 15 22.5 15C22.058 15 21.634 15.1756 21.3215 15.4882C21.0089 15.8007 20.8333 16.2246 20.8333 16.6667C20.8333 17.1087 21.0089 17.5326 21.3215 17.8452C21.634 18.1577 22.058 18.3333 22.5 18.3333Z" fill="#4B00CC"/>
</svg>

<svg fill="none" xmlns="http://www.w3.org/2000/svg">
  <path fill-rule="evenodd" clip-rule="evenodd" d="M22.5 10.446c.97.29 1.667.387 1.667.387v-2.5h1.666a4.167 4.167 0 1 0 0-8.333H21.03a4.363 4.363 0 0 0-4.363 4.363c0 3.765 3.623 5.422 5.833 6.083Zm5.833-6.28a2.5 2.5 0 0 1-2.5 2.5H22.5v2.03c-.457-.155-.904-.341-1.336-.556-1.652-.828-2.83-2.007-2.83-3.777a2.696 2.696 0 0 1 2.696-2.696h4.803a2.5 2.5 0 0 1 2.5 2.5ZM7.348 9.995a4.165 4.165 0 0 1 .15-8.327h2.641a4.027 4.027 0 0 1 4.028 4.027c0 3.369-3.025 4.908-5 5.556-.957.313-1.667.417-1.667.417V10l-.152-.006Zm1.819-1.601-1.759-.064a2.498 2.498 0 0 1 .09-4.996h2.64A2.36 2.36 0 0 1 12.5 5.694c0 1.596-1.014 2.642-2.437 3.384-.3.156-.604.29-.896.403V8.393ZM18.333 15A3.332 3.332 0 0 1 15 18.333 3.332 3.332 0 0 1 11.667 15 3.332 3.332 0 0 1 15 11.667 3.332 3.332 0 0 1 18.333 15Zm-1.666 0a1.667 1.667 0 1 1-3.334 0 1.667 1.667 0 0 1 3.334 0Zm-5.834 1.667a3.332 3.332 0 1 1-6.666 0 3.332 3.332 0 1 1 6.666 0Zm-1.666 0a1.667 1.667 0 1 1-3.334 0 1.667 1.667 0 0 1 3.334 0ZM0 25.454c0-2.518 4.997-3.787 7.5-3.787.487 0 1.07.048 1.692.144C10.308 20.99 12.356 20 15 20c2.643 0 4.69.992 5.81 1.81a11.36 11.36 0 0 1 1.69-.143c2.503 0 7.5 1.269 7.5 3.787V30H0v-4.546Zm13.043-.435c.29.27.29.411.29.435v2.88H1.667v-2.88c0-.025 0-.165.29-.435.302-.282.801-.583 1.48-.858 1.36-.55 3.021-.828 4.063-.828 1.042 0 2.703.278 4.063.828.679.275 1.178.576 1.48.858Zm5.409-2.639A8.641 8.641 0 0 0 15 21.667c-1.38 0-2.553.321-3.45.713C13.394 23 15 24.027 15 25.455c0-1.428 1.605-2.454 3.452-3.075Zm9.881 3.075c0-.025 0-.166-.29-.436-.302-.282-.801-.583-1.48-.858-1.36-.55-3.021-.828-4.063-.828-1.042 0-2.703.278-4.063.828-.679.275-1.178.576-1.48.858-.29.27-.29.411-.29.435v2.88h11.666v-2.88.001ZM22.5 20a3.332 3.332 0 0 0 3.333-3.333 3.332 3.332 0 1 0-6.666 0A3.332 3.332 0 0 0 22.5 20Zm0-1.667a1.667 1.667 0 1 0 0-3.333 1.667 1.667 0 0 0 0 3.333Z" fill="#4B00CC"/>
</svg>
